!!!ONB: MCCC : IWM0413_03 : Extracted Monophonic Melody
!!!COM: Mozart, Wolfgang Amadeus
!!!OPR: Piano Sonata No.13
!!!OMV: 3
!!!SCT: K.333 ; K⁶.315c
!!!ODT: 1783///
**kern
*thru
*staff1
*clefG2
*k[b-e-]
*B-:
*M4/4
*met(c)
*MM144
=1
4.ff
8dd
4b-
4b-
=2
4ee-
4gg
4a
8r
8a
=3
8cc
8b-
8dd
8cc
8ee-
8dd
8ff
8ee-
=4
4.dd
16ee-
16dd
8cc
8dd
8ee-
8ee
=5
4.ff
24ee-
24dd
24cc
4b-
4b-
=6
4ee-
4gg
4a
8r
8a
=7
8b-
8dd
8g
8cc
4b-
4a
=8
8b-
8f
8g
8a
8b-
8cc
8dd
8ee-
=9
4.ff
8dd
4b-
4b-
=10
4ee-
4gg
4a
8r
8a
=11
8cc
8b-
8dd
8cc
8ee-
8dd
8ff
8ee-
=12
4.dd
16ee-
16dd
8cc
8dd
8ee-
8ee
=13
4.ff
24ee-
24dd
24cc
8b-
8b-
8b-
8b-
=14
4ee-
4gg
4a
8r
8aa
=15
12bb-
12ff
12dd
12gg
12ee-
12cc
12ff
12dd
12b-
12ee-
12cc
12a
=16
4b-
8r
8f
8b-
8a
8b-
8cc
=17
4dd
4dd
4dd
4ee-
=18
4cc
8r
8f
8cc
8b-
8cc
8dd
=19
4ee-
4ee-
4ee-
4ff
=20
4dd
8r
8b-
8dd
8cc
8dd
8ee
=21
4ff
12r
12ff
12gg
12aa
12gg
12ff
12ee
12dd
12cc
=22
4b-
12r
12ee
12ff
12gg
12ff
12ee
12dd
12cc
12b-
=23
16a
16cc
16b-
16a
16b-
16cc
16dd
16ee
16ff
16gg
16aa
16bb-
8ccc
8a
=24
4a
4g
4.gg
16ee
16cc
=25
4ff
4ff#
4.gg
16ee
16cc
=26
4ff
4r
8gg
4gg
16ee
16cc
=27
8ff
8ff
8ff#
8ff#
8gg
4gg
16ee
16cc
=28
4ff
4r
16ff#
16gg
16aa
16gg
16ff
16ee
16dd
16cc
=29
16ff
16cc
16aa
16ff
16ccc
16aa
16ccc
16aa
16ccc
16bb-
16aa
16gg
16ff
16ee-
16dd
16cc
=30
16dd
16b-
16ff
16dd
16bb-
16ff
16ddd
16bb-
16ddd
16ccc
16bb-
16aa
16gg
16ff
16ee
16dd
=31
2cc
4.gg
16ff
16gg
=32
16aa
16bb-
16ccc
16bb-
16aa
16gg
16ff
16ee
16ff
16gg
16aa
16gg
16ff
16ee-
16dd
16cc#
=33
16dd
16ee
16ff
16ee
16dd
16cc
16b-
16a
16g
16a
16b-
16a
16g
16f
16e
16d
=34
8c
16d
16e
16f
16g
16a
16b-
16cc
16dd
16ee
16ff
16gg
16aa
16bb-
16ccc
=35
1gg
=36
8ff
8ff
8r
8ff
8ff
8ff
8r
8ff
=37
8ff
8ff
8r
8ff
8ff
8ff
8r
8ff
=38
8ff
8ff
8r
8ff
8ff
8ff
8r
8ff
=39
8ff
8aa
8aa
8ccc
8ccc
8eee-
8eee-
8ccc
=40
8ccc
8aa
8aa
8ff
8ff
8ee
8ee
8ff
=41
4.ff
8dd
4b-
4b-
=42
4ee-
4gg
4a
8r
8a
=43
8cc
8b-
8dd
8cc
8ee-
8dd
8ff
8ee-
=44
4.dd
16ee-
16dd
8cc
8dd
8ee-
8ee
=45
4.ff
24ee-
24dd
24cc
4b-
4b-
=46
4ee-
4gg
4a
8r
8a
=47
8b-
8dd
8g
8cc
4b-
4a
=48
8b-
8f
8g
8a
8b-
8cc
8dd
8ee-
=49
4.ff
8dd
4b-
4b-
=50
4ee-
4gg
4a
8r
8a
=51
8cc
8b-
8dd
8cc
8ee-
8dd
8ff
8ee-
=52
4.dd
16ee-
16dd
8cc
8dd
8ee-
8ee
=53
4.ff
24ee-
24dd
24cc
8b-
8b-
8b-
8b-
=54
4ee-
4gg
4a
8r
8aa
=55
12bb-
12ff
12dd
12gg
12ee-
12cc
12ff
12dd
12b-
12ee-
12cc
12a
=56
4b-
8r
8f
8b-
8a
8b-
8cc
=57
4dd
4dd
4dd
4ee-
=58
4cc
8r
8f
8cc
8b-
8cc
8dd
=59
4ee-
4ee-
4ee-
4ff
=60
4dd
8r
8b-
8dd
8cc
8dd
8ee-
=61
4ff
4ff
4ff
4ff
=62
1ff#
=63
2gg
2cc#
=64
4dd
8.r
16d
4dd
4dd
=65
4.bb-
24aa
24gg
24ff#
4gg
4dd
=66
4ee-
8.r
16g
4gg
4gg
=67
4.eee-
24ddd
24ccc
24bb
4ccc
4ee-
=68
4dd
8r
8cc#
8dd
8bb-
8aa
8gg
=69
8.ff#
32gg
32aa
8gg
8gg
8ccc#
8ddd
8bb-
8gg
=70
8.ff#
32gg
32aa
8gg
8dd
8gg
8gg
8gg
8gg
=71
8.gg
32aa
32bb-
8aa
8gg
8ff
8ee-
8dd
8cc#
=72
8cc#
8dd
4dd
4dd
4dd
=73
1dd
=74
1ff
=75
1d
=76
2e-[
8.e-]
16B-
8.d
16B-
=77
8.e-
16B-
8.f
16B-
8.g
16B-
8.a-
16B-
=78
[2f
8.f]
16B-
8.e
16B-
=79
8.f
16B-
8.g
16B-
8.a-
16B-
8.b-
16B-
=80
4g
8r
8b-
8.ee-
16ff
8.gg
16b-
=81
8.cc
16dd
8.ee-
16g
8.a-
16b-
8.cc
16a-
=82
4g
8r
8b-
8.ee-
16ff
8.gg
16b
=83
8.cc
16dd
8.ee-
16g
8.a-
16b-
8.cc
16a-
=84
4g
8r
8g
8b-
8a
8r
8a
=85
8cc
8b-
8r
8b
8dd
8cc
8ee-
8dd
=86
8ff
8ee-
8ff
8ee
8gg
8ff
8aa-
8gg
=87
8bb-
8aa-
4r
4r
8r
8ff
=88
8.gg
16ee-
8.cc
16ff
4ee-
4dd
=89
8bb-
8aa-
4r
4r
8r
8ff
=90
8.gg
16ee-
8.cc
16ff
4ee-
4dd
=91
4.gg
8ee-
4cc
4cc
=92
4ff
4aa-
4b
8r
8b
=93
8dd
8cc
8ee-
8dd
8ff
8ee-
8r
8b
=94
8dd
8cc
8ee-
8dd
8ff
8ee-
8ff
8ee
=95
4.ff
8dd
4b-
4b-
=96
4ee-
4gg-
4a
8r
8a
=97
8cc
8b-
8dd-
8cc
8ee-
8dd-
8r
8a
=98
8cc
8b-
8dd-
8cc
8ee-
8dd-
8r
8dd-
=99
8dd-
8cc-
8r
8cc-
8cc-
8b-
8r
8b-
=100
8b-
8aa-
8r
8aa-
8aa-
8gg-
8r
8gg-
=101
8gg-
8ff
8r
8ff
8ff
8ee
8r
8ee
=102
4.bb-
8ccc
4ddd-
4ee
=103
8ff
8ee
8ff
8cc
8ee-
8dd-
8cc
8b-
=104
8gg-
8ff
8ee
8ff
8ee-
8dd-
8cc
8b-
=105
4cc
4dd-
4cc
4ee
=106
4ff
4dd-
4cc
4ee
=107
8ff
8ff
8r
8ff
8ff
8ff
8r
8ff
=108
8ff
8ff
8r
8ff
8ff
8ff
8r
8ff
=109
8ff
8ff
8r
8ff
8ff
8ff
8r
8ff
=110
8ff
8f
8e
8f
8g-
8g
8a-
8a
=111
8b-
8b
8cc
8cc#
8dd
8ee-
8ee
8ff
=112
4.ff
8dd
4b-
4b-
=113
4ee-
4gg
4a
8r
8a
=114
8cc
8b-
8dd
8cc
8ee-
8dd
8ff
8ee-
=115
4.dd
16ee-
16dd
8cc
8dd
8ee-
8ee
=116
4.ff
24ee-
24dd
24cc
4b-
4b-
=117
4ee-
4gg
4a
8r
8a
=118
8b-
8dd
8g
8cc
4b-
4a
=119
8b-
8f
8g
8a
8b-
8cc
8dd
8ee-
=120
4.ff
8dd
4b-
4b-
=121
4ee-
4gg
4a
8r
8a
=122
8cc
8b-
8dd
8cc
8ee-
8dd
8ff
8ee-
=123
4.dd
16ee-
16dd
8cc
8dd
8ee-
8ee
=124
4.ff
24ee-
24dd
24cc
8b-
8b-
8b-
8b-
=125
4ee-
4gg
4a
8r
8aa
=126
12bb-
12ff
12dd
12gg
12ee-
12cc
12ff
12dd
12b-
12ee-
12cc
12a
=127
4b-
8r
8f
8b-
8a
8b-
8cc
=128
4dd
4dd
4dd
4ee-
=129
4cc
8r
8f
8cc
8b-
8cc
8dd
=130
4ee-
4ee-
4ee-
4ff
=131
4dd
8r
8b-
8dd
8ee-
8ff
8gg
=132
4aa-
4a-
4a-
4a-
=133
4g
8r
8dd
8gg
8ff#
8gg
8dd
=134
8ff
8ee-
8r
8g
16cc
16b
16dd
16cc
16ee-
16dd
16ff
16ee-
=135
4gg
4g
4g
4g-
=136
4f
8r
8cc
8ff
8ee
8ff
8cc
=137
8ee-
8dd
12r
12bb-
12aa
12bb-
12aa
12gg
12ff
12ee-
12dd
=138
4cc
12r
12cc
12dd
12ee-
12dd
12cc
12gg
12ff
12ee-
=139
4dd
12r
12bb-
12aa
12bb-
12aa-
12gg
12ff
12ee-
12dd
=140
4ee-
12r
12ee-
12ff
12gg
12ff
12ee-
12bb-
12aa-
12gg
=141
4ff
12r
12bb-
12aa
12bb-
12aa-
12gg
12ff
12gg
12aa-
=142
12gg
12bb-
12aa
12gg
12aa
12bb-
12ee-
12gg
12ff
12ee-
12ff
12gg
=143
12cc
12ee-
12dd
12cc
12dd
12ee-
12g
12b-
12a
12g
12a
12b-
=144
16a
16f
16g
16a
16b-
16cc
16dd
16ee
16ff
16gg
16aa
16bb-
8ccc
8ee-
=145
16dd
16b-
16cc
16dd
16ee-
16ff
16gg
16aa
16bb-
16ccc
16ddd
16eee-
8fff
8bb-
=146
16aa
16bb-
16ccc
16bb-
16aa
16bb-
16ccc
16ddd
16eee-
16ddd
16ccc
16bb-
16aa
16gg
16ff
16ee-
=147
16dd
16ff
16ee-
16dd
16ee-
16ff
16gg
16aa
16bb-
16aa
16gg
16ff
16ee-
16dd
16cc
16b-
=148
4ff
4f
4.cc
16a
16f
=149
4b-
4b
4.cc
16a
16f
=150
4b-
4r
8cc
4cc
16a
16f
=151
8b-
8b-
8b
8b
8cc
4cc
16a
16f
=152
4b-
4r
16bb
16ccc
16ddd
16ccc
16bb-
16aa
16gg
16ff
=153
16bb-
16ff
16ddd
16bb-
16fff
16ddd
16fff
16ddd
16fff
16eee-
16ddd
16ccc
16bb-
16aa
16gg
16ff
=154
16gg
16ee-
16bb-
16aa
16bb-
16aa
16bb-
16aa
16bb-
16aa
16gg
16ff
16ee-
16dd
16cc
16b-
=155
16f
16ff
16gg
16ff
16ee-
16dd
16cc
16b-
4.cc
16b-
16cc
=156
16dd
16ee-
16ff
16ee-
16dd
16cc
16b-
16a
16b-
16cc
16dd
16cc
16b-
16a-
16g
16f#
=157
16g
16a
16b-
16a
16g
16f
16e-
16d
16c
16d
16e-
16d
16c
16B-
16A
16G
=158
8F
16G
16A
16B-
16c
16d
16e-
16g
16f
16e-
16d
16e-
16f
16g
16a
=159
16b-
16a
16g
16f
16g
16a
16b-
16cc
16dd
16cc
16b-
16a
16b-
16cc
16dd
16ee-
=160
16ff
16dd
16ff
16dd
16bb-
16ff
16bb-
16ff
16ddd
16bb-
16ddd
16bb-
16fff
16ddd
16fff
16ddd
=161
16bb-
16ddd
16bb-
16ddd
16ff
16bb-
16ff
16bb-
16dd
16ff
16dd
16ff
16b-
16dd
16b-
16dd
=162
4f
4.ff
16gg
16ff
16ee-
16dd
16cc
16b-
=163
1cc
=164
8b-
8b-
8r
8b-
8b-
8b-
8r
8b-
=165
8cc
8cc
8r
8cc
8cc
8cc
8r
8cc
=166
8dd
8dd
8r
8dd
8ee-
8ee-
8r
8ee
=167
8ff
8ff
8r
8ff#
8gg
8gg
8aa
8aa
=168
16dd
16bb-
16ddd
16bb-
16ddd
16bb-
16ddd
16bb-
16dd
16bb-
16ddd
16bb-
16ddd
16bb-
16ddd
16bb-
=169
16dd
16bb-
16ddd
16bb-
16ddd
16bb-
16ddd
16bb-
16dd
16bb-
16ddd
16bb-
16ddd
16bb-
16ddd
16bb-
=170
16dd
16bb-
16ddd
16bb-
16ddd
16bb-
16ddd
16bb-
16dd
16bb-
16ddd
16bb-
16ddd
16bb-
16ddd
16bb-
=171
2ddd
8r
16f
16a
16g
16b-
16a
16cc
=172
8b-
16a
16cc
16b-
16dd
16cc
16ee-
8dd
16cc
16ee-
16dd
16ff
16ee-
16gg
=173
4.ff
8dd
4b-
4b-
=174
4ee-
4gg
4a
4r
=175
4.ff
8dd-
8b-
8b-
8b-
8b-
=176
4ee-
4gg-
4a
4r
=177
8b-
8bb-
8ccc
8ddd-
8ccc
8bb-
8aa-
8gg-
=178
2ff
2ee
=179
8ff
8ff
8r
8ff
8ff
8ff
8r
8ff
=180
8ff
8ff
8r
8ff
8ff
8ff
8r
8ff
=181
8ff
8ff
8r
8ff
8ff
8ff
8r
8ff
=182
8ff
8aa
8aa
8ccc
8ccc
8eee-
8eee-
8ccc
=183
8ccc
8aa
8aa
8ff
8ff
8ee
8ee
8ff
=184
8ff
8ee
2ee-
[4ee-
=185
4ee-]
4ee-
4ee-
4ee-
=186
4dd
4ff
4ee-
4dd
=187
4ee-
4gg
4ff
4ee
=188
4ff
4aa-
4gg
4ff#
=189
8gg
8gg
8r
8gg
8eee-
8eee-
8r
8gg
=190
8ff
8ff
8r
8ff
8ddd
8ddd
8r
8ff
=191
8ee-
8ee-
8r
8ee-
8ccc
8ccc
8r
8ee-
=192
8dd
8dd
8r
8dd
8bb-
8bb-
8r
8dd
=193
8cc
8cc
8r
8cc
8bb-
8bb-
8bb-
8cc
=194
8dd
8dd
8r
8dd
8bb-
8bb-
8bb-
8dd
=195
8ee-
8ee-
8r
8ee
8ff
8ff
8r
8ff#
=196
8gg
8gg
8aa
8aa
8bb-
8bb-
8ccc
8ccc
=197
4.ddd-
16.bb-
64aa
64bb-
4.ddd-
16.bb-
64aa
64bb-
=198
2ddd-
2r
=203
4.ff
8dd
4b-
4b-
=204
4ee-
4gg
4a
8r
8a
=205
8cc
8b-
8dd
8cc
8ee-
8dd
8ff
8ee-
=206
4.dd
16ee-
16dd
8cc
8dd
8ee-
8ee
=207
4.ff
24ee-
24dd
24cc
8b-
8b-
8b-
8b-
=208
4ee-
4gg
4a
8r
8ee-
=209
*tuplet
12dd
12ff
12bb-
12gg
12ee-
12cc
12ff
12dd
12b-
12ee-
12cc
12a
=210
*Xtuplet
12b-
12bb-
12bb-
12bb-
12bb-
12bb-
12bb-
12aa
12gg
12ff
12ee-
12dd
=211
12cc
12gg
12gg
12gg
12gg
12gg
12gg
12ff
12ee-
12dd
12ee-
12cc
=212
16ee
16ff
16gg
16ff
16ee-
16dd
16cc
16b-
2cc
=213
8b-
16bb-
16aa
16bb-
16aa
16bb-
16aa
16bb-
16aa
16gg
16ff
16ee-
16dd
16cc
16b-
=214
8g
16gg
16ff#
16gg
16ff#
16gg
16ff#
16gg
16ff
16ee-
16dd
16cc
16b-
16a
16g
=215
8f
16g
16a
16b-
16cc
16dd
16ee-
16ff
16gg
16aa
16bb-
16ccc
16ddd
16eee-
16fff
=216
1ccc
=217
4bb-
4r
4r
8r
8b-
=218
4.aa-
8ff
4dd
4dd
=219
4ee-
4ff
4gg
8r
8gg
=220
8ff
8ee-
8dd
8cc
8b-
8a
8ee-
8a
=221
8b-
8cc
8dd
8ee-
8ee
8ff
8ff#
8gg
=222
4.aa-
*tuplet
24gg
24ff
24ee-
8dd
8dd
8dd
8dd
=223
4ee-
8.ff
32ee-
32ff
4gg
8r
8gg
=224
8ff
8ee-
8dd
8cc
8b-
8a
8ee-
8a
=225
4b-
8r
8dd
8ff
8ee-
8cc
8a
=226
4b-
8r
16dd
16b-
8ff
8ee-
8cc
8a
=227
4b-
8r
8ff
4aa
4aa
=228
4bb-
4r
2r
==
*-
